packages/elvis-assets-icons/icons/svg/src/hammer_wrench-color.svg

<svg width="24" height="24" viewBox="0 0 24 24" fill="none" xmlns="http://www.w3.org/2000/svg">
<g clip-path="url(#clip0)">
<path d="M8.30991 11.2044C8.10987 11.2044 7.92183 11.1262 7.7798 10.9849L7.08665 10.2931C6.51053 10.5016 5.9114 10.6069 5.30027 10.6069C4.70214 10.6069 4.11001 10.5046 3.53889 10.3031C2.2056 9.83184 1.13437 8.86931 0.522243 7.59095C-0.171906 6.13913 -0.173907 4.47175 0.515241 3.01793C0.619263 2.79735 0.825308 2.64194 1.06436 2.59983C1.10837 2.59281 1.15038 2.5888 1.19139 2.5888C1.39143 2.5888 1.58047 2.66701 1.7215 2.80838L3.14681 4.23313C3.29684 4.38753 3.48488 4.46874 3.69192 4.47075L3.73093 4.47175C3.96298 4.47175 4.13302 4.35244 4.23504 4.25318C4.38107 4.1108 4.46209 3.9193 4.46509 3.71376C4.46909 3.50922 4.39207 3.31672 4.25004 3.17033L2.80973 1.73155C2.6377 1.5591 2.55868 1.31345 2.59969 1.07282C2.6407 0.832187 2.79573 0.625644 3.01578 0.52137C3.73793 0.175461 4.5051 0 5.29527 0C5.8944 0 6.48852 0.102269 7.06065 0.304801C8.39393 0.776039 9.46416 1.74057 10.0743 3.01893C10.6824 4.29328 10.7564 5.76114 10.2873 7.08462L10.9025 7.69923C11.1955 7.992 11.1955 8.46926 10.9045 8.76303C10.7624 8.90541 10.5734 8.98361 10.3734 8.98361C10.1733 8.98361 9.98527 8.90541 9.84424 8.76504L8.87303 7.79448C8.64899 7.56989 8.58897 7.22599 8.725 6.93924C9.21811 5.8985 9.21711 4.70637 8.721 3.66664C8.28391 2.75023 7.51774 2.05941 6.56254 1.72152C6.15145 1.57614 5.72636 1.50295 5.29727 1.50295C5.11323 1.50295 4.92919 1.51699 4.74715 1.54406L5.32127 2.11757C5.74636 2.55371 5.97441 3.12622 5.96741 3.73181C5.96041 4.3384 5.71736 4.90589 5.28526 5.32901C4.85917 5.7461 4.29705 5.9757 3.70193 5.9757C3.70093 5.9757 3.67792 5.9757 3.67692 5.9757C3.07179 5.96768 2.50567 5.72505 2.08258 5.29191L1.54146 4.75048C1.43344 5.49143 1.54646 6.25043 1.87653 6.94124C2.31463 7.85665 3.08179 8.54746 4.038 8.88435C4.44809 9.02873 4.87318 9.10292 5.30127 9.10292C5.86839 9.10292 6.41851 8.97659 6.93762 8.72694C7.03864 8.67881 7.15067 8.65274 7.26169 8.65274C7.46173 8.65274 7.64977 8.73095 7.7908 8.87232L8.83903 9.91907C8.98106 10.0604 9.05907 10.2489 9.06007 10.4505C9.06007 10.651 8.98306 10.8405 8.84103 10.9829C8.7 11.1252 8.51096 11.2044 8.30991 11.2044Z" fill="#29D305"/>
<path d="M18.6992 24C18.1001 24 17.506 23.8977 16.9338 23.6952C15.6006 23.2229 14.5303 22.2584 13.9212 20.98C13.3131 19.7057 13.239 18.2388 13.7081 16.9163L12.6399 15.8495C12.3469 15.5568 12.3469 15.0795 12.6389 14.7857C12.781 14.6434 12.97 14.5652 13.17 14.5652C13.3701 14.5652 13.5581 14.6434 13.7001 14.7847L15.1225 16.2065C15.3465 16.4311 15.4055 16.775 15.2705 17.0617C14.7774 18.1015 14.7794 19.2936 15.2745 20.3323C15.7116 21.2487 16.4777 21.9396 17.433 22.2774C17.844 22.4228 18.2691 22.496 18.6982 22.496C18.8823 22.496 19.0653 22.483 19.2473 22.4549L18.7012 21.9095C17.841 21.0272 17.842 19.6004 18.6982 18.7251C19.1263 18.288 19.7004 18.0463 20.3136 18.0463C20.9117 18.0463 21.4748 18.2769 21.8999 18.696L22.451 19.2465C22.5591 18.5065 22.445 17.7485 22.116 17.0597C21.4888 15.7473 20.1435 14.9 18.6872 14.9C18.1201 14.9 17.571 15.0254 17.0549 15.273C16.9548 15.3212 16.8428 15.3462 16.7318 15.3462C16.5328 15.3462 16.3447 15.269 16.2027 15.1276L14.7794 13.7049C14.4863 13.4121 14.4863 12.9349 14.7784 12.6411C14.9204 12.4987 15.1095 12.4205 15.3095 12.4205C15.5095 12.4205 15.6976 12.4987 15.8386 12.6401L16.9058 13.7069C17.478 13.5004 18.0761 13.3961 18.6862 13.3961C20.7167 13.3961 22.5941 14.5792 23.4682 16.411C24.1614 17.8618 24.1644 19.5262 23.4752 20.979C23.3712 21.1996 23.1662 21.356 22.9261 21.3971C22.8851 21.4051 22.8411 21.4092 22.7961 21.4092C22.5981 21.4092 22.411 21.3309 22.269 21.1896L20.8437 19.7658C20.7037 19.6275 20.5136 19.5503 20.3126 19.5503C20.1045 19.5503 19.9105 19.6315 19.7665 19.7799C19.4774 20.0746 19.4764 20.5559 19.7655 20.8517L21.1828 22.2684C21.3548 22.4409 21.4328 22.6875 21.3918 22.9271C21.3508 23.1678 21.1958 23.3743 20.9757 23.4796C20.2576 23.8245 19.4904 24 18.6992 24Z" fill="#29D305"/>
<path d="M3.00073 24C2.19927 24 1.4459 23.6901 0.879866 23.1282C-0.288262 21.9685 -0.294273 20.077 0.867844 18.9102L5.58243 14.2144C5.86595 13.9325 6.24264 13.7775 6.64337 13.7775C7.0441 13.7775 7.42078 13.9325 7.7043 14.2144L8.1431 14.6503L14.4446 8.56878L11.8048 5.94343C10.9282 5.07364 10.9252 3.65299 11.7968 2.7782L13.9246 0.660722C14.3494 0.237826 14.9144 0.00488281 15.5175 0.00488281C16.1186 0.00488281 16.6837 0.236826 17.1074 0.658723L23.3398 6.8572C23.7646 7.2791 23.999 7.83996 24 8.43782C24.002 9.03567 23.7696 9.59853 23.3468 10.0224C23.3388 10.0304 23.3258 10.0424 23.3157 10.0524L21.2189 12.1419C20.7941 12.5648 20.2291 12.7977 19.627 12.7977C19.0249 12.7977 18.4599 12.5648 18.0361 12.1429L15.5085 9.62852L9.20704 15.71L9.82617 16.3259C10.1097 16.6088 10.266 16.9837 10.266 17.3836C10.266 17.7825 10.1107 18.1584 9.82817 18.4414C9.82216 18.4474 9.79912 18.4694 9.79311 18.4744L5.12159 23.1282C4.55656 23.6901 3.80319 24 3.00073 24ZM1.9408 19.961C1.35974 20.5438 1.35874 21.4886 1.9398 22.0645C2.22231 22.3454 2.599 22.5004 3.00073 22.5004C3.40246 22.5004 3.77915 22.3454 4.06166 22.0645L8.76523 17.3806C8.76523 17.3806 7.60111 16.2289 7.59911 16.2269L6.64337 15.2761L1.9408 19.961ZM15.5185 1.50452C15.3182 1.50452 15.1288 1.5825 14.9876 1.72246L12.8667 3.83294C12.7264 3.97391 12.6483 4.16086 12.6483 4.35982C12.6483 4.55777 12.7254 4.74272 12.8657 4.88169L19.0981 11.0802C19.2393 11.2211 19.4277 11.2981 19.629 11.2981C19.8304 11.2981 20.0187 11.2211 20.16 11.0802L22.2799 8.96769C22.4231 8.82372 22.4993 8.64177 22.4993 8.44182C22.4983 8.24486 22.4211 8.05891 22.2809 7.91994L16.0485 1.72146C15.9072 1.5815 15.7189 1.50452 15.5185 1.50452Z" fill="black"/>
</g>
<defs>
<clipPath id="clip0">
<path d="M0 0H24V24H0V0Z" fill="white"/>
</clipPath>
</defs>
</svg>

<svg width="24" height="24" fill="none" xmlns="http://www.w3.org/2000/svg"><g clip-path="url(#clip0)"><path d="M8.31 11.204a.747.747 0 01-.53-.22l-.693-.69a5.226 5.226 0 01-1.787.313 5.28 5.28 0 01-1.761-.304A5.27 5.27 0 01.522 7.591a5.299 5.299 0 01-.007-4.573.751.751 0 01.676-.43c.2 0 .39.079.53.22l1.426 1.425c.15.155.338.236.545.238h.039c.232 0 .402-.119.504-.218a.763.763 0 00.23-.54.754.754 0 00-.215-.543L2.81 1.732a.754.754 0 01.206-1.21A5.239 5.239 0 017.06.304a5.263 5.263 0 013.013 2.714 5.326 5.326 0 01.213 4.066l.615.614c.293.293.293.77.003 1.064a.746.746 0 01-1.06.002l-.972-.97a.756.756 0 01-.148-.856 3.794 3.794 0 00-.004-3.272 3.77 3.77 0 00-2.158-1.945 3.783 3.783 0 00-1.816-.178l.574.574c.425.436.653 1.008.646 1.614a2.258 2.258 0 01-.682 1.597 2.251 2.251 0 01-1.583.647h-.025a2.256 2.256 0 01-1.594-.684L1.54 4.75c-.108.741.005 1.5.336 2.191a3.771 3.771 0 002.161 1.943 3.746 3.746 0 002.9-.157.743.743 0 01.853.145L8.839 9.92a.749.749 0 01.002 1.064.744.744 0 01-.531.221zM18.7 24a5.28 5.28 0 01-1.766-.305 5.263 5.263 0 01-3.013-2.715 5.321 5.321 0 01-.213-4.064L12.64 15.85a.755.755 0 01-.001-1.064.746.746 0 011.061-.001l1.423 1.421a.757.757 0 01.148.856 3.793 3.793 0 00.003 3.27 3.769 3.769 0 002.159 1.945 3.782 3.782 0 001.814.178l-.546-.545a2.291 2.291 0 01-.003-3.185 2.245 2.245 0 011.616-.679c.598 0 1.16.23 1.586.65l.551.55a3.792 3.792 0 00-.335-2.186 3.817 3.817 0 00-3.429-2.16c-.567 0-1.116.125-1.632.373a.75.75 0 01-.852-.145l-1.424-1.423a.754.754 0 01.53-1.284c.2 0 .389.078.53.22l1.067 1.066a5.226 5.226 0 011.78-.31 5.324 5.324 0 014.782 3.014 5.29 5.29 0 01.007 4.568.747.747 0 01-1.206.21l-1.425-1.423a.753.753 0 00-.531-.216.754.754 0 00-.546.23.77.77 0 00-.002 1.072l1.418 1.416a.755.755 0 01-.207 1.212 5.223 5.223 0 01-2.277.52z" fill="#29D305"/><path d="M3 24c-.8 0-1.554-.31-2.12-.872a2.982 2.982 0 01-.012-4.218l4.714-4.696c.284-.282.66-.437 1.061-.437.401 0 .778.155 1.061.437l.44.436 6.3-6.081-2.64-2.626a2.238 2.238 0 01-.007-3.165L13.925.661c.424-.423.99-.656 1.592-.656.602 0 1.167.232 1.59.654l6.233 6.198c.425.422.659.983.66 1.58a2.22 2.22 0 01-.653 1.585l-.031.03-2.097 2.09a2.24 2.24 0 01-1.592.656 2.24 2.24 0 01-1.59-.655l-2.528-2.514-6.302 6.081.62.616c.283.283.439.658.439 1.058a1.488 1.488 0 01-.473 1.09l-4.671 4.654A2.988 2.988 0 013 24zm-1.06-4.039A1.487 1.487 0 003 22.501c.402 0 .78-.156 1.062-.437l4.703-4.683L7.6 16.227l-.956-.95-4.702 4.684zM15.52 1.505c-.2 0-.39.078-.531.217l-2.121 2.11a.743.743 0 00-.001 1.05l6.232 6.198c.141.141.33.218.531.218s.39-.077.531-.218l2.12-2.112a.733.733 0 000-1.048L16.049 1.72a.748.748 0 00-.53-.216z" fill="#000"/></g><defs><clipPath id="clip0"><path d="M0 0h24v24H0V0z" fill="#fff"/></clipPath></defs></svg>
